assets/icons/bowtie/uE69F-work-item.svg

<svg xmlns="http://www.w3.org/2000/svg" viewBox="0 0 448 448"><path d="M224 374.625l-107.312-107.312 22.625-22.625 84.687 84.687 180.688-180.688 22.625 22.625-203.313 203.313zm96-214.625v-64h-32v64h-192v-64h-32v320h256v-64h32v96h-320v-384h96c0-35.297 28.703-64 64-64s64 28.703 64 64h96v96h-32zm-64-64h-32v-32c0-17.64-14.36-32-32-32s-32 14.36-32 32v32h-32v32h128v-32z"/></svg>

<svg xmlns="http://www.w3.org/2000/svg" viewBox="0 0 448 448"><path d="M224 374.625L116.688 267.313l22.625-22.625L224 329.375l180.688-180.688 22.625 22.625L224 374.625zM320 160V96h-32v64H96V96H64v320h256v-64h32v96H32V64h96c0-35.297 28.703-64 64-64s64 28.703 64 64h96v96h-32zm-64-64h-32V64c0-17.64-14.36-32-32-32s-32 14.36-32 32v32h-32v32h128V96z"/></svg>
